X: 37
T: Polska efter Petter Dufva 
T: (Ma6 37)
S: efter Petter Dufva
R: Slängpolska
B: SMUS - katalog Ma6 bild 40 (litet annorlunda än denna version som baserar sig på vad jag hört spelas)
B: Petter Dufvas notbok
O: Småland
Z: Nils L, 2008-12-25
M: 3/4
L: 1/8
K: D
|: dc df A2 | GF EG FD | dc df A2 |1 GF/E/ F2 D2 :|2 G/F/E F2 D2 |]
|: fd df df | ge eg eg | fd df df | ge eg eg |
f>a gf ed | ed/c/ d2 D2 :|

